X:1
T:James Gibb editions
T:Haec dies - Ravanello
T:#
%%score { 1 | 2 } 3
L:1/8
Q:1/4=132
M:3/4
K:D
V:1 treble nm="Soprano I" snm="S"
V:2 treble 
V:3 treble nm="Alto" snm="A"
V:1
"^Haec dies, op.66/11""^Oreste Ravanello\n (1871-1938)""^allegro moderato"!ff! !^!d6 | (!^!d6 | %2
w: Haec|di\-|
 B6) | A6 | z6 | z6 |[M:3/4] z6 | z6 | e2 e2 f2 | (g3 f) e2 | f2 z2 z2 | z6 | z2 !^!d2 !^!d2 | e6 | %14
w: |es,|||||quam fe- cit|Do\- * mi-|nus:||ex- sul-|te-|
"^," f2 !^!f2 !^!f2 | (d6- | dcBABc) |"^," d4 d2- | d2 (cB c2) |"^," d4 d2 | (d6 | B6) | A6- | %23
w: mus, et lae-|te\-||mur in|* e\- * *|a, in|e\-||a.|
 !fermata!A6 |] %24
w: |
V:2
!ff! !^!F6 | !^!G6- | G6 | F6 | z6 | z6 |[M:3/4] !tenuto!A2 !tenuto!A2 B2 | (d3 c B2 | c4 d2 | %9
w: Haec|di\-||es,|||quam fe- cit|Do\- * *||
 B2 cd) c2 |"^," d2 !^!A2 !^!A2 | (d6- | d6 | d2 cB c2) |"^," A2 A2 A2 | (B2 ABAG) |"^," F4 F2- | %17
w: * * * mi-|nus: ex- sul-|te\-|||mus, et lae-|te\- * * * *|mur, in|
 F2 (BAGF | G6) |"^," F4 F2 | (F6 | G6- | G2) (F2 E2 | !fermata!F6) |] %24
w: * e\- * * *||a, in|e\-||* a. *||
V:3
!ff! !^!D6 | (!^!B,6 | G,6) |"^," D6 | !tenuto!D2 !tenuto!D2 E2 | (F3 E D2 |[M:3/4] A4 G2 | %7
w: Haec|di\-||es,|quam fe- cit|Do\- * *|* mi-|
"^," F4 ^G2 | A4 D2 | (E3 D) A2 | D2 z2 z2 | z2 !^!F2 !^!F2 | B6 |"^," A2 A2 A2 | D2"^," D2 DD | %15
w: nus, quam|fe- cit|Do\- * mi-|nus:|ex- sul-|te-|mus, ex- sul-|te- mus, et lae-|
 G2 FGFE) |"^," D4 (DC) | (B,6 | E6) |"^," B,4 B,2 | (B,6 | G,6) | D6- | !fermata!D6 |] %24
w: te\- * * * *|mur in *|e\-||a, in|e\-||a.||

